packages/icon/src/svg/gear.icon.svg

<?xml version="1.0" encoding="UTF-8"?>
<svg width="24px" height="24px" viewBox="0 0 24 24" version="1.1" xmlns="http://www.w3.org/2000/svg" xmlns:xlink="http://www.w3.org/1999/xlink">
    <!-- Generator: Sketch 46.1 (44463) - http://www.bohemiancoding.com/sketch -->
    <title>Icon/gear.icon</title>
    <desc>Created with Sketch.</desc>
    <defs>
        <path d="M13,6.08295844 L13,4 L11,4 L11,6.08295844 C9.54996476,6.32622826 8.27628878,7.08959613 7.37735312,8.17468099 L5.57329677,7.13310857 L4.57329677,8.86515938 L6.37562522,9.90573419 C6.13274749,10.5577398 6,11.2633675 6,12 C6,12.7359167 6.13248963,13.4408889 6.37491752,14.092365 L4.57229677,15.1331086 L5.57229677,16.8651594 L7.37605923,15.8237566 C8.27506639,16.9096711 9.54926891,17.673655 11,17.9170416 L11,20 L13,20 L13,17.9170416 C14.451079,17.6735966 15.7255447,16.9093046 16.6245875,15.8229753 L18.4297032,16.8651594 L19.4297032,15.1331086 L17.6254361,14.0914145 C17.8676392,13.4402032 18,12.7355588 18,12 C18,11.2637254 17.8673815,10.5584255 17.6247287,9.90668456 L19.4287032,8.86515938 L18.4287032,7.13310857 L16.6232939,8.17546213 C15.7243224,7.08996249 14.4503832,6.32628663 13,6.08295844 L13,6.08295844 Z M4.07653684,13.1110893 C4.02608086,12.7479549 4,12.3770232 4,12 C4,11.6229768 4.02608086,11.2520451 4.07653684,10.8889107 L1.84074596,9.59807621 L4.84074596,4.40192379 L7.07747597,5.69330046 C7.65942834,5.23842887 8.3059515,4.86235101 9.001,4.58111234 L9.001,2 L15.001,2 L15.001,4.58192192 C15.695627,4.86320953 16.3417591,5.23923134 16.9233736,5.69396464 L19.161254,4.40192379 L22.161254,9.59807621 L19.9236116,10.8899797 C19.9739703,11.2527731 20,11.6233468 20,12 C20,12.3766532 19.9739703,12.7472269 19.9236116,13.1100203 L22.161254,14.4019238 L19.161254,19.5980762 L16.9233736,18.3060354 C16.3417591,18.7607687 15.695627,19.1367905 15.001,19.4180781 L15.001,22 L9.001,22 L9.001,19.4188877 C8.3059515,19.137649 7.65942834,18.7615711 7.07747597,18.3066995 L4.84074596,19.5980762 L1.84074596,14.4019238 L4.07653684,13.1110893 L4.07653684,13.1110893 Z M12,16 C9.790861,16 8,14.209139 8,12 C8,9.790861 9.790861,8 12,8 C14.209139,8 16,9.790861 16,12 C16,14.209139 14.209139,16 12,16 Z M12,14 C13.1045695,14 14,13.1045695 14,12 C14,10.8954305 13.1045695,10 12,10 C10.8954305,10 10,10.8954305 10,12 C10,13.1045695 10.8954305,14 12,14 Z" id="path-1"></path>
    </defs>
    <g id="Symbols" stroke="none" stroke-width="1" fill="none" fill-rule="evenodd">
        <g id="Icon/gear">
            <mask id="mask-2" fill="white">
                <use xlink:href="#path-1"></use>
            </mask>
            <use id="Combined-Shape" fill="#000000" xlink:href="#path-1"></use>
            <g id="Color/Neutral/White" mask="url(#mask-2)" fill="#FFFFFF">
                <rect id="222222-Fill" x="0" y="0" width="24" height="24"></rect>
            </g>
        </g>
    </g>
</svg>

<svg viewBox="0 0 24 24" xmlns="http://www.w3.org/2000/svg"><path d="M13 6.083V4h-2v2.083c-1.45.2432-2.7237 1.0066-3.6226 2.0917L5.5734 7.133l-1 1.7322 1.8022 1.0405C6.1326 10.5577 6 11.2634 6 12c0 .736.1325 1.441.375 2.0924L4.5722 15.133l1 1.7322 1.8038-1.0414c.899 1.086 2.1733 1.85 3.624 2.0932V20h2v-2.083c1.451-.2434 2.7255-1.0077 3.6246-2.094l1.805 1.0422 1-1.732-1.8042-1.0418C17.8676 13.4402 18 12.7356 18 12c0-.7363-.1326-1.4416-.3753-2.0933l1.804-1.0415-1-1.732-1.8054 1.0423C15.7243 7.09 14.4503 6.3263 13 6.083zm-8.9235 7.028C4.026 12.748 4 12.377 4 12s.026-.748.0765-1.111L1.8407 9.598l3-5.196 2.2368 1.2913c.582-.455 1.2285-.831 1.9235-1.1122V2h6v2.582c.6946.2812 1.3408.6572 1.9224 1.112l2.238-1.292 3 5.196-2.2378 1.292c.0504.3628.0764.7333.0764 1.11 0 .3767-.026.7472-.0764 1.11l2.2377 1.292-3 5.196-2.238-1.292c-.5815.4548-1.2277.8308-1.9223 1.112V22h-6v-2.581c-.695-.2814-1.3416-.6574-1.9235-1.1123L4.8407 19.598l-3-5.196 2.2358-1.291zM12 16c-2.209 0-4-1.791-4-4s1.791-4 4-4 4 1.791 4 4-1.791 4-4 4zm0-2c1.1046 0 2-.8954 2-2s-.8954-2-2-2-2 .8954-2 2 .8954 2 2 2z" /></svg>
